X: 27179
T: Miss Monaghan
R: reel
M: 4/4
K: Dmajor
|:D2(3FED FAAd|B2BA FAAB|d2dB ABde|fedf e2FE|
D2(3FED FAAd|B2BA FAAB|d2dB ABdB|1 AFEF D2FE:|2 AFEF D4||
|:faab afdf|g2fg edBc|d2dB ABde|fedf e2de|
faab afdf|g2fg edBc|d2dB ABdB|AFEF D4:|

